X:1
T:Title
%%score { ( 1 3 ) | ( 2 4 ) }
L:1/8
Q:1/4=95
M:6/8
K:C
V:1 treble nm="Grand Piano"
V:3 treble 
V:2 bass 
V:4 bass 
V:1
 [EG]2 [EG] [CE][DF][EG] | [FA]3 [EG]3 | c2 c [DB][Ec][Fd] | c3 z3 | [EG]2 [EG] [CE][DF][EG] | %5
w: John~R.~Bryant * * * *|||||
 [FA]3 [Gc]3 | z3 .d3 | [B,G]6 | [B,EG]2 [DF] [DF]E[G,B,D] | [G,CE]3 [CEG]3 | %10
w: |||||
 [B,EG]2 [DF] [DF][CE][B,D] | [CE]6 | z3 .e3 | d3 A2 c | z3 .B3 | [Ec]6 |] %16
w: ||||||
V:2
 [C,C]2 [C,C] [C,G,]2 [C,G,] | [C,C]3 [C,C]3 | [G,E]2 [G,E] [G,,G,]2 [G,,G,] | G,3 z3 | %4
 [C,C]2 [C,C] [C,G,]2 [C,C] | [F,C]3 [E,C]3 | z3 .A,3 | G,,6 | G,,2 [G,,G,] z CG,, | C,3 C,3 | %10
 G,,2 [G,,G,] [G,,G,]2 [G,,G,] | [C,G,]6 | [C,G,]2 [C,G,] [C,C][D,B,][E,C] | [F,A,F]3 D2 A, | %14
 [G,D]2 [G,D] [G,,G,]2 [G,,G,] | [C,G,]6 |] %16
V:3
 x6 | x6 | x6 | E3- [CEG]3 | x6 | x6 | [GB]2 [GB] ^F-[Fc][CFA] | x6 | x6 | x6 | x6 | x6 | %12
 [Ec]2 [Fd] G-[Gf][Ge] | x6 | B2 B F-[FA][FB] | x6 |] %16
V:4
 x6 | x6 | x6 | C,6 | x6 | x6 | [D,D]2 [D,G,] D,-[D,D]D, | x6 | z3 .[G,,G,]3 | x6 | x6 | x6 | x6 | %13
 z3 [F,F]3 | x6 | x6 |] %16

